X:1
T:I Want to Walk as a Child of the Light
T:I Want to Walk as a Child of the Light
T:Kathleen Thomerson
T:Kathleen Thomerson, 1970
T:© 1970 Celebration Services Ltd. Courtesy of the Cyber Hymnal™
T:© 1970 Celebration Services Ltd. Courtesy of the Cyber Hymnal™
C:Kathleen Thomerson
Z:© 1970 Celebration Services Ltd.
Z:Courtesy of the Cyber Hymnal™
%%score ( 1 2 ) ( 3 4 )
L:1/8
M:3/4
K:Db
V:1 treble 
V:2 treble 
V:3 bass 
V:4 bass 
V:1
 D2 [DF]2 [DG]2 | ([EA]2 [EA]2) [DA]2 | [DB]2 [DA]2 [DG]2 | A6 | D2 [DF]2 [DG]2 | [DA]4 [CF]2 | %6
w: 1.~I want to|walk~as * a|child of the|light;|I want to|fol- low|
w: 2.~I want to|see * the|bright- ness of|God;|I want to|look at|
w: 3.~I’m look- ing|for * the|com- ing of|Christ;|I want to|be with|
 E6 | D6 | [A,D]2 [DF]2 [CG]2 | ([CA]2 [FA]2) [EA]2 | [DB]2 [CA]2 [DG]2 | A4 [EA]2 | %12
w: Je-|sus.|God set the|stars~to * give|light to the|world; The|
w: Je-|sus.|Clear Sun of|righteous- * ness,|shine on my|path, And|
w: Je-|sus.|When we have|run * with|pa- tience the|race, We|
 F2 [DG]2 [DF]2 | (E2 E2) [EA]2 | B6 | [CA]6 ||"^Refrain" [Fd]2 [Fd]2 [Fc]2 | [DB]4 [EA]2 | %18
w: star of my|life * is|Je-|sus.|||
w: show me the|way~to * the|Fa-|ther.|In him there|is no|
w: shall know the|joy * of|Je-|sus.|||
 [Dd]2 [Dd]2 [DB]2 | A4 [EA]2 | D2 [DF]2 E2 | (G2 F2) E2 | [DF]4 [DG]2 | [EA]4 [EA]2 | %24
w: ||||||
w: dark- ness at|all; The|night and the|day * are|both a-|like. The|
w: ||||||
 [Ge]2 [Gd]2 [Ac]2 | [Ad]2 [Ac]2 A2 | (Bc) [Fd]2 [=GB]2 | A6 | D2 [DF]2 [DG]2 | [CA]4 [B,F]2 | E6 | %31
w: |||||||
w: Lamb is the|light of the|ci- * ty of|God;|Shine in my|heart, Lord|Je-|
w: |||||||
 [A,D]6 |] %32
w: |
w: sus.|
w: |
V:2
 D2 x4 | x6 | x6 | (E2 D2 C2) | D2 x4 | x6 | (B,4 C2) | (D2 C2 B,2) | x6 | x6 | x6 | (E2 F2) x2 | %12
 F2 x4 | E2 E2 x2 | (F2 D2 E2) | x6 || x6 | x6 | x6 | (D2 F2) x2 | D2 E2 x2 | D4 E2 | x6 | x6 | %24
 x6 | x4 A2 | E2 x4 | A6 | D2 x4 | x6 | (B,4 C2) | x6 |] %32
V:3
 [D,F,]2 [D,A,]2 [B,,B,]2 | ([A,,C]2 [A,C]2) [F,A,]2 | G,2 [F,A,]2 [E,B,]2 | A,6 | %4
 [D,F,]2 [B,,B,]2 [G,,B,]2 | [F,,A,]4 [F,,A,]2 | G,6 | F,4 [G,,G,]2 | [D,F,]2 [D,A,]2 [E,A,]2 | %9
 ([F,A,]2 [F,C]2) [F,C]2 | [G,B,]2 [A,C]2 B,2 | (C2 D2) [A,C]2 | [D,D]2 [D,B,]2 [D,A,]2 | %13
 ([C,A,]2 [B,,B,]2) [A,,C]2 | B,4 [E,=G,]2 | [A,,A,]6 || [D,A,]2 [D,A,]2 [F,A,]2 | [G,B,]4 [G,C]2 | %18
 [F,A,]2 [F,A,]2 G,2 | (F,2 A,2) [A,,C]2 | [B,,C]2 [B,,B,]2 [C,A,]2 | [D,A,]4 [C,A,]2 | %22
 [B,,F,]4 [B,,B,]2 | [A,,C]4 [A,C]2 | [E,B,]2 [F,B,]2 [G,E]2 | [F,D]2 [F,D]2 [F,C]2 | %26
 [G,B,]2 [F,B,]2 [E,B,]2 | ([A,C]2 [B,D]2 [CE]2) | D2 [B,D]2 B,2 | A,2 [A,,E]2 [B,,D]2 | %30
 B,2 A,2 [A,,G,]2 | [D,F,]6 |] %32
V:4
 x6 | x6 | G,2 x4 | (C,2 B,,2 A,,2) | x6 | x6 | (G,,4 A,,2) | B,,2 A,,2 x2 | x6 | x6 | x4 B,2 | %11
 A,4 x2 | x6 | x6 | D,2 B,,2 x2 | x6 || x6 | x6 | x4 G,2 | D,4 x2 | x6 | x6 | x6 | x6 | x6 | x6 | %26
 x6 | x6 | D2 B,2 x2 | A,2 x4 | G,,4 x2 | x6 |] %32

